X:1
T:Title
%%score { ( 1 3 4 ) | 2 }
L:1/8
M:9/8
K:F
V:1 treble nm="Grand Piano"
V:3 treble 
V:4 treble 
V:2 bass 
V:1
 z3 z3[Q:1/4=90] FGD | z DD DdA cBD | G3 z3 z3 | .A6 z3 | G3 z3 z3 | .d6 z3 | c3 z3 z3 | .c6 z3 | %8
[M:15/16] F3/2-F3/2-F3/2- F3 |[M:3/8] z3 |[M:9/8] DDD z dA cBD |[M:3/4] G3 F3 |[M:3/8] DFB | %13
[M:9/8] A-[_EA-][EA-] AGA cAG |[M:3/4] G-[^CG-] [CG] [DF]3 |[M:3/8] DFB |[M:9/8] .d6 z3 | %17
[M:3/4] d3 c3 |[M:3/8] GAB |[M:9/8] .d6 z3 |[M:3/4] B6 |] %21
V:2
 z9 | B,,[F,B,][F,B,] .[F,B,]3 .[F,B,D]3 | B,,[F,B,][F,B,] .[F,B,D]3 .[F,B,]3 | %3
 C,[F,A,][F,A,] .[F,A,]3 .[F,A,_E]3 | B,,[E,B,][E,B,] .[F,B,D]3 .[F,B,]3 | %5
 =B,,[_A,=B,][A,B,] .[A,B,]3 .[A,B,D]3 | C,[K:treble][A,C][A,C] .[A,CF]3 .[A,CF]3 | %7
 C,[G,C][G,C] .[G,C]3 .[G,B,E]3 |[M:15/16] [F,,F,]A,/-A,/B,F,,3/2- F,,3 |[M:3/8][K:treble] FGD | %10
[M:9/8][K:bass] [B,,B,][B,,B,][B,,B,] .[B,,B,]3 [B,,B,]2 [B,,F,B,] | %11
[M:3/4] [B,,B,][B,,B,] [B,,B,] [B,,B,]2 [B,,B,] |[M:3/8] z3 | %13
[M:9/8] [C,F,][C,F,][C,F,] .[F,C]3 [F,A,_E]2 [F,E] |[M:3/4] [B,,E,][B,,E,] [B,,E,] [B,,F,]3 | %15
[M:3/8] z3 |[M:9/8][K:treble] [G,=B,F][G,B,][G,B,] .[G,B,]3 [G,B,G]2[K:bass] [G,B,] | %17
[M:3/4] [C,B,][C,B,] [C,B,] [C,B,]2 [C,B,] |[M:3/8] z3 | %19
[M:9/8] [F,A,_E][F,A,][F,A,] .[F,A,]3 [F,A,E]2 [F,A,E] |[M:3/4] [B,,B,][B,,A,] [B,,G,] [B,,F,]3 |] %21
V:3
 x9 | .F6 z3 | z DD F3 DFB | z _EE EGA cAG | z ^CC F3 DFB | z FF F^cd fed | z FF A3 ced | %7
 z EE E=Bc dcE |[M:15/16] z C/-C/D[F,C_E]3/2- [F,CE]3 |[M:3/8] x3 |[M:9/8] .F6 z3 | %11
[M:3/4] DD D D2 D |[M:3/8] x3 |[M:9/8] ._E3 .E3 z3 |[M:3/4] .^C2 z2 z2 |[M:3/8] x3 | %16
[M:9/8] z FF z ^cd f_ed |[M:3/4] EE E E2 E |[M:3/8] x3 |[M:9/8] z _EE z cA FGA |[M:3/4] DF _E D3 |] %21
V:4
 x9 | x9 | x9 | x9 | x9 | x9 | x9 | x9 |[M:15/16] x15/2 |[M:3/8] x3 |[M:9/8] z3 .D3 .D3 | %11
[M:3/4] x6 |[M:3/8] x3 |[M:9/8] x9 |[M:3/4] x6 |[M:3/8] x3 |[M:9/8] z3 .F3 z3 |[M:3/4] x6 | %18
[M:3/8] x3 |[M:9/8] z3 ._E3 z3 |[M:3/4] x6 |] %21

